symbolic/16x16/panel/steadyflow-panel.svg

<svg xmlns="http://www.w3.org/2000/svg" width="16" height="16" version="1.1">
 <defs>
  <style id="current-color-scheme" type="text/css">
   .ColorScheme-Text { color:#323a41; } .ColorScheme-Highlight { color:#4285f4; } .ColorScheme-NeutralText { color:#ff9800; } .ColorScheme-PositiveText { color:#4caf50; } .ColorScheme-NegativeText { color:#f44336; }
  </style>
 </defs>
 <path style="fill:currentColor" class="ColorScheme-Text" d="M 9 1 C 7.5555739 1.0007178 6.2237323 1.7801139 5.515625 3.0390625 C 4.0648997 3.2764083 2.9998535 4.5299874 3 6 C 3.0003782 6.042992 3.0016762 6.0859701 3.0039062 6.1289062 C 1.2369591 6.5832285 0.00132101 8.1755834 0 10 C 0 12.209139 1.790861 14 4 14 L 9.296875 14 L 7.2480469 11.658203 C 6.6831674 11.011818 7.1415704 10.00095 8 10 L 9 10 L 9 7 C 9.0000552 6.4477381 9.4477381 6.0000552 10 6 L 13 6 C 13.552262 6.0000552 13.999945 6.4477381 14 7 L 14 10 L 15 10 C 15.320846 10.000355 15.585179 10.142759 15.761719 10.353516 C 15.918639 9.9194695 15.999256 9.4615402 16 9 C 15.997559 7.1757471 14.761156 5.5842493 12.994141 5.1308594 C 12.996808 5.0872745 12.998761 5.0436489 13 5 C 13 2.790861 11.209139 1 9 1 z M 10 7 L 10 10.324219 C 9.9999758 10.569669 9.7786531 10.999975 9.5332031 11 L 8 11 L 11.5 15 L 15 11 L 13.478516 11 C 13.233066 10.999976 13.000024 10.569669 13 10.324219 L 13 7 L 10 7 z"/>
</svg>

<svg xmlns="http://www.w3.org/2000/svg" width="16" height="16"><defs><style id="current-color-scheme" type="text/css"></style></defs><path style="fill:currentColor;color:#323a41" d="M9 1a4 4 0 0 0-3.484 2.04 3 3 0 0 0-2.512 3.089A4 4 0 0 0 0 10a4 4 0 0 0 4 4h5.297l-2.049-2.342A1 1 0 0 1 8 10h1V7a1 1 0 0 1 1-1h3a1 1 0 0 1 1 1v3h1a.98.98 0 0 1 .762.354A4 4 0 0 0 16 9a4 4 0 0 0-3.006-3.87c.003-.043.005-.086.006-.13a4 4 0 0 0-4-4zm1 6v3.324c0 .246-.221.676-.467.676H8l3.5 4 3.5-4h-1.521c-.246 0-.479-.43-.479-.676V7h-3z"/></svg>
